X: 38940
T: Susan's Den
R: reel
M: 4/4
K: Dmajor
FE|:DB,A,B, DEFA|B2 AF ABde|fd d2 edBc|dBAF E2 FE|
DB,A,B, DEFA|B2 AF ABde|fded Bdfe|1 dBAF D2 FE:|2 dBAF D2FG||
|:Ad d2 Adfd|adfd edBA|dBAF DEFA|dBAF E2 FG|
[1 Ad d2 Adfd|adfd edBd|fded Bdfe|dBAF D2 FG:|
[2 Ad d2 Adfa|bfaf gfed|BdAd fded|BdAF D2 FE||

